public/logos/ZG.svg

<?xml version="1.0" encoding="UTF-8"?>
<svg xmlns="http://www.w3.org/2000/svg" xmlns:xlink="http://www.w3.org/1999/xlink" width="176pt" height="41.25pt" viewBox="0 0 176 41.25" version="1.1">
<defs>
<clipPath id="clip1">
  <path d="M 77 37 L 176 37 L 176 41.25 L 77 41.25 Z M 77 37 "/>
</clipPath>
</defs>
<g id="surface1">
<path style=" stroke:none;fill-rule:nonzero;fill:rgb(10.545349%,9.913635%,9.561157%);fill-opacity:1;" d="M 145.417969 16.042969 C 145.417969 16.042969 145.417969 16.042969 145.496094 16.042969 C 152.21875 16.042969 158.328125 15.769531 158.328125 8.492188 C 158.328125 1.214844 151.109375 1.441406 145.496094 1.734375 Z M 176 33.09375 L 176 34.523438 L 166.761719 34.453125 C 156.476562 30.101562 159.667969 19.851562 148.726562 18.058594 C 147.203125 17.808594 145.503906 17.835938 145.503906 17.835938 C 145.503906 17.835938 145.503906 20.183594 145.503906 24.800781 C 145.503906 31.527344 146.144531 32.953125 151.511719 32.953125 L 151.511719 34.382812 L 134.773438 34.382812 L 134.773438 32.953125 C 140.234375 32.953125 140.109375 31.140625 140.109375 24.707031 C 140.109375 14.222656 140.105469 11.761719 140.105469 7.960938 C 140.105469 3.011719 140.085938 1.878906 135.050781 1.878906 L 135.050781 0.472656 C 143.488281 0.144531 151.851562 -0.398438 157.308594 0.832031 C 162.371094 1.972656 164.742188 5.835938 164.742188 8.789062 C 164.742188 12.238281 163.199219 16.089844 154.238281 17.242188 C 161.5625 18.171875 165.644531 26.878906 169.507812 30.390625 C 171.929688 32.589844 174.015625 33.09375 176 33.09375 "/>
<path style=" stroke:none;fill-rule:nonzero;fill:rgb(10.545349%,9.913635%,9.561157%);fill-opacity:1;" d="M 101.417969 19.195312 C 101.417969 19.195312 100.746094 17.851562 99.878906 16.046875 C 99.011719 14.242188 95.257812 6.429688 95.257812 6.429688 C 95.257812 6.429688 91.503906 14.238281 90.640625 16.046875 C 89.777344 17.851562 89.109375 19.195312 89.109375 19.195312 Z M 116.277344 0.472656 L 131.53125 0.472656 L 131.53125 1.910156 C 127.300781 1.910156 126.617188 1.941406 126.617188 8.816406 C 126.617188 16.15625 126.597656 21.53125 126.597656 26.441406 C 126.597656 31.941406 126.921875 32.960938 131.535156 32.960938 L 131.539062 34.390625 L 102.835938 34.390625 L 102.835938 32.960938 C 107.105469 32.960938 106.898438 30.773438 106.398438 29.640625 C 106.109375 28.980469 104.621094 25.902344 103.6875 23.929688 C 102.746094 21.960938 102.292969 20.988281 102.292969 20.988281 L 88.25 20.988281 C 88.25 20.988281 87.71875 22.148438 86.773438 24.113281 C 85.832031 26.082031 85.144531 27.511719 84.625 28.738281 C 83.453125 31.515625 85.15625 32.957031 89.511719 32.957031 L 89.511719 34.386719 L 76.34375 34.386719 L 76.34375 32.957031 C 80.519531 32.957031 81.058594 31.507812 82.722656 28.160156 C 84.039062 25.511719 96.234375 0.00390625 96.234375 0.00390625 L 97.980469 0.00390625 C 97.980469 0.00390625 110.53125 26.070312 111.867188 28.785156 C 113.199219 31.5 114.054688 32.988281 116.585938 32.988281 C 119.164062 32.988281 121.199219 32.992188 121.199219 26.414062 C 121.199219 20.539062 121.203125 12.445312 121.203125 8.847656 C 121.203125 2.46875 120.8125 1.882812 116.269531 1.882812 L 116.269531 0.472656 L 116.277344 0.472656 "/>
<path style=" stroke:none;fill-rule:nonzero;fill:rgb(10.545349%,9.913635%,9.561157%);fill-opacity:1;" d="M 64.148438 16.03125 C 70.851562 16.164062 76.582031 15.835938 76.582031 8.820312 C 76.582031 1.804688 69.445312 1.421875 64.148438 1.839844 Z M 53.640625 0.472656 C 69.148438 -0.203125 73.992188 -0.00390625 77.949219 1.863281 C 81.90625 3.730469 82.394531 7.246094 82.394531 9.058594 C 82.394531 10.867188 81.449219 14.34375 78.714844 15.871094 C 76.386719 17.175781 73.742188 17.949219 64.148438 17.773438 C 64.148438 17.773438 64.15625 23.636719 64.15625 26.910156 C 64.15625 32.261719 64.46875 32.960938 69.503906 32.960938 L 69.503906 34.390625 L 53.636719 34.390625 L 53.636719 32.960938 C 58.496094 32.960938 58.75 32.21875 58.75 26.472656 C 58.75 22.027344 58.75 12.867188 58.75 7.992188 C 58.75 2.160156 58.839844 1.882812 53.640625 1.882812 L 53.640625 0.472656 "/>
<g clip-path="url(#clip1)" clip-rule="nonzero">
<path style=" stroke:none;fill-rule:nonzero;fill:rgb(18.87207%,61.218262%,45.570374%);fill-opacity:1;" d="M 77.09375 37.777344 L 175.34375 37.777344 L 175.34375 41.25 L 77.09375 41.25 L 77.09375 37.777344 "/>
</g>
<path style=" stroke:none;fill-rule:nonzero;fill:rgb(10.545349%,9.913635%,9.561157%);fill-opacity:1;" d="M 0.953125 9.050781 L 3.015625 9.050781 C 5.90625 3.589844 8.75 2.25 10.675781 2.25 C 12.601562 2.25 24.238281 2.25 24.238281 2.25 L 0 32.804688 L 0.707031 34.390625 L 29.046875 34.390625 L 33.480469 24.425781 L 31.410156 24.425781 C 28.1875 30.527344 25.097656 32.292969 22.792969 32.292969 C 20.488281 32.292969 7.726562 32.292969 7.726562 32.292969 L 31.792969 1.988281 L 31.113281 0.480469 L 4.765625 0.480469 L 0.953125 9.050781 "/>
<path style=" stroke:none;fill-rule:nonzero;fill:rgb(10.545349%,9.913635%,9.561157%);fill-opacity:1;" d="M 50.359375 34.390625 L 35.101562 34.390625 L 35.101562 32.960938 C 39.644531 32.960938 40.03125 32.359375 40.03125 25.8125 C 40.03125 25.8125 40.03125 14.488281 40.03125 8.964844 C 40.03125 2.414062 39.613281 1.882812 35.101562 1.882812 L 35.101562 0.472656 L 50.359375 0.472656 L 50.359375 1.882812 C 45.761719 1.882812 45.425781 2.414062 45.425781 8.964844 C 45.425781 14.488281 45.425781 25.8125 45.425781 25.8125 C 45.425781 32.359375 45.878906 32.957031 50.359375 32.957031 L 50.359375 34.390625 "/>
</g>
</svg>

<svg xmlns="http://www.w3.org/2000/svg" width="176pt" height="55" viewBox="0 0 176 41.25"><defs><clipPath id="a"><path d="M77 37h99v4.25H77Zm0 0"/></clipPath></defs><path d="M145.418 16.043h.078c6.723 0 12.832-.273 12.832-7.55s-7.219-7.052-12.832-6.759ZM176 33.093v1.43l-9.238-.07c-10.285-4.351-7.094-14.601-18.035-16.394-1.524-.25-3.223-.223-3.223-.223V24.8c0 6.726.64 8.152 6.008 8.152v1.43h-16.739v-1.43c5.461 0 5.336-1.812 5.336-8.246 0-10.484-.004-12.945-.004-16.746 0-4.95-.02-6.082-5.054-6.082V.473c8.437-.328 16.8-.871 22.258.359 5.062 1.14 7.433 5.004 7.433 7.957 0 3.45-1.543 7.3-10.504 8.453 7.325.93 11.407 9.637 15.27 13.149 2.422 2.199 4.508 2.703 6.492 2.703M101.418 19.195s-.672-1.343-1.54-3.148c-.866-1.805-4.62-9.617-4.62-9.617s-3.754 7.808-4.617 9.617c-.864 1.805-1.532 3.148-1.532 3.148ZM116.278.473h15.253V1.91c-4.23 0-4.914.031-4.914 6.906 0 7.34-.02 12.715-.02 17.625 0 5.5.325 6.52 4.938 6.52l.004 1.43h-28.703v-1.43c4.27 0 4.062-2.188 3.562-3.32-.289-.66-1.777-3.739-2.71-5.711a364 364 0 0 1-1.395-2.942H88.25s-.531 1.16-1.477 3.125c-.941 1.969-1.628 3.399-2.148 4.625-1.172 2.778.531 4.219 4.887 4.219v1.43H76.344v-1.43c4.176 0 4.715-1.45 6.379-4.797C84.039 25.512 96.234.004 96.234.004h1.746s12.551 26.066 13.887 28.781c1.332 2.715 2.188 4.203 4.719 4.203 2.578 0 4.613.004 4.613-6.574 0-5.875.004-13.969.004-17.566 0-6.38-.39-6.965-4.933-6.965V.473zM64.148 16.031c6.704.133 12.434-.195 12.434-7.21 0-7.016-7.137-7.4-12.434-6.981ZM53.641.473c15.507-.676 20.351-.477 24.308 1.39s4.446 5.383 4.446 7.196c0 1.808-.946 5.285-3.68 6.812-2.328 1.305-4.973 2.078-14.567 1.902 0 0 .008 5.864.008 9.137 0 5.352.313 6.05 5.348 6.05v1.43H53.637v-1.43c4.86 0 5.113-.741 5.113-6.487V7.993c0-5.833.09-6.11-5.11-6.11z" style="stroke:none;fill-rule:nonzero;fill:#1b1918;fill-opacity:1"/><g clip-path="url(#a)"><path d="M77.094 37.777h98.25v3.473h-98.25z" style="stroke:none;fill-rule:nonzero;fill:#309c74;fill-opacity:1"/></g><path d="M.953 9.05h2.063c2.89-5.46 5.734-6.8 7.66-6.8h13.562L0 32.805l.707 1.586h28.34l4.433-9.965h-2.07c-3.222 6.101-6.312 7.867-8.617 7.867H7.727L31.793 1.988 31.113.48H4.766zM50.36 34.39H35.101v-1.43c4.543 0 4.93-.6 4.93-7.148V8.965c0-6.55-.419-7.082-4.93-7.082V.473h15.257v1.41c-4.597 0-4.933.531-4.933 7.082v16.848c0 6.546.453 7.144 4.933 7.144z" style="stroke:none;fill-rule:nonzero;fill:#1b1918;fill-opacity:1"/></svg>
